X:1
T:Test Key Change
M:4/4
L:1/8
K:C
Q:1/4=120
CDEF GABc|cBAG FEDC|CDEF GABc|cBAG FEDC|
Q:1/4=140
K:G
GABG DEFG|GFED BGAB|GABG DEFG|GFED BGAB|
